X:1
T:Title
%%score { ( 1 4 ) | ( 2 3 ) }
L:1/8
M:6/8
K:Ab
V:1 treble nm="Grand Piano"
V:4 treble 
V:2 bass 
V:3 bass 
V:1
 z3 z2[Q:1/4=84] E | [Ec]>[Ec][Ec] [Ec][DB][CA] | [CE]3- [CE]2 [CE] | c>cc cBA |[M:5/8] B-B- B3 | %5
[M:1/8] B/c/ |[M:3/4] [Gd]>[Gd] [Gd] [Gd]2 B | c>c c c2 [EA] | [FB]>[FB] [FB][FB] [CEA][B,EG] | %9
[M:5/8] [A,CEA]-[A,CEA]- [A,CEA]3 |[M:1/8] [CEA]/[CEA]/ |[M:3/4] GG GG AB | BA- A3 c | %13
 [GB][GB] [GB][GB] [Ac][Bd] | c4- cc/d/ | e>e ee dc | ed- d3 [EGB] | _c>c cc BA | %18
[M:15/16] z B,/-B,/_C D3 [Gd]3/2 |[M:3/4] [Ec]>[Ec] [Ec][Ec] [DB][CA] | [CE]4- [CE][CE] | %21
 c>c cc BA |[M:5/8] B-B- B3 |[M:1/8] B/c/ |[M:3/4] [Gd]>[Gd] [Gd] [Gd]2 B | c>c c c2 [EA] | %26
 [FB]>[FB] [FB][FB] [EA][EG] |[M:13/8] [CEA]-[CEA]- [CEA]3 z z z z z z z2 |] %28
V:2
 z3 z2 E, | [A,,A,]>[A,,A,][A,,A,] [A,,A,][A,,E,][A,,E,] | [A,,A,]3- [A,,A,]2 [A,,A,] | %3
 [A,E]>[A,E][A,E] [A,E][G,B,E][F,B,=D] |[M:5/8] [E,G,E]-[E,G,E]- [E,G,E]3 | %5
[M:1/8] [E,G,E]/[E,A,E]/ |[M:3/4] [E,B,]>[E,B,] [E,B,] [E,B,]2 [E,G,E] | %7
 [A,E]>[A,E] [A,E] [A,E]2 [C,A,] | [D,D]>[D,D] [D,D][D,D] E,E, |[M:5/8] A,,-A,,- A,,3 | %10
[M:1/8] A,,/A,,/ |[M:3/4] [E,B,E][E,B,E] [E,B,E][E,B,E] [E,CE][E,DE] | %12
 [A,DE][A,CE]- [A,CE]3 [A,EA] | [E,E][E,E] [E,E][E,E] [E,E][E,E] | [A,EA]4- [A,EA]A/[B,A]/ | %15
 [A,CA]>[A,CA] [A,CA][CEA] [B,EG][A,EA] | [B,EG][B,EG]- [B,EG]3[K:bass] E, | _C>C CC B,A, | %18
[M:15/16] z G,/-G,/A, B,3 [E,B,]3/2 |[M:3/4] [A,,A,]>[A,,A,] [A,,A,][A,,A,] [A,,E,][A,,E,] | %20
 [A,,A,]4- [A,,A,][A,,A,] | [A,E]>[A,E] [A,E][A,E] [G,B,E][F,B,=D] | %22
[M:5/8] [E,G,E]-[E,G,E]- [E,G,E]3 |[M:1/8] [E,G,E]/[E,A,E]/ | %24
[M:3/4] [E,B,]>[E,B,] [E,B,] [E,B,]2 [E,G,E] | [A,E]>[A,E] [A,E] [A,E]2 [C,A,] | %26
 [D,D]>[D,D] [D,D][D,D] [E,C][E,B,] |[M:13/8] [A,,A,]-[A,,A,]- [A,,A,]3 z z z z z z z2 |] %28
V:3
 x6 | x6 | x6 | x6 |[M:5/8] x5 |[M:1/8] x |[M:3/4] x6 | x6 | x6 |[M:5/8] x5 |[M:1/8] x | %11
[M:3/4] x6 | x6 | x6 | z2 z2 z A, | x6 | x5[K:bass] x | x6 |[M:15/16] E,3/2-E,3/2- E,3 z3/2 | %19
[M:3/4] x6 | x6 | x6 |[M:5/8] x5 |[M:1/8] x |[M:3/4] x6 | x6 | x6 |[M:13/8] x13 |] %28
V:4
 x6 | x6 | x6 | x6 |[M:5/8] x5 |[M:1/8] x |[M:3/4] x6 | x6 | x6 |[M:5/8] x5 |[M:1/8] x | %11
[M:3/4] x6 | x6 | x6 | x6 | x6 | x6 | x6 |[M:15/16] E3/2-E3/2- E3 z3/2 |[M:3/4] x6 | x6 | x6 | %22
[M:5/8] x5 |[M:1/8] x |[M:3/4] x6 | x6 | x6 |[M:13/8] x13 |] %28

